packages/kaspersky-hexa-ui-icons/src/iconsSVGs/24/AccountSearch.svg

<svg width="24" height="24" viewBox="0 0 24 24" fill="none" xmlns="http://www.w3.org/2000/svg">
<path fill-rule="evenodd" clip-rule="evenodd" d="M6.8501 6.9766C6.8501 4.78038 8.63048 3 10.8267 3C13.0229 3 14.8033 4.78038 14.8033 6.9766C14.8033 9.17281 13.0229 10.9532 10.8267 10.9532C8.63048 10.9532 6.8501 9.17281 6.8501 6.9766ZM10.8267 5C9.73505 5 8.8501 5.88495 8.8501 6.9766C8.8501 8.06824 9.73505 8.95319 10.8267 8.95319C11.9183 8.95319 12.8033 8.06824 12.8033 6.9766C12.8033 5.88495 11.9183 5 10.8267 5Z" fill="black"/>
<path d="M3 17.0566C3 14.2952 5.23858 12.0566 8 12.0566H12.5985C11.8475 12.5744 11.2203 13.2589 10.7703 14.0566H8C6.34315 14.0566 5 15.3998 5 17.0566V18.0978C5 18.6501 5.44772 19.0978 6 19.0978H10.3769C10.6565 19.8468 11.0814 20.5249 11.6173 21.0978H6C4.34315 21.0978 3 19.7547 3 18.0978V17.0566Z" fill="black"/>
<path fill-rule="evenodd" clip-rule="evenodd" d="M12 17C12 14.7909 13.7909 13 16 13C18.2091 13 20 14.7909 20 17C20 17.7418 19.7981 18.4365 19.4462 19.032L21.2071 20.7929C21.5976 21.1834 21.5976 21.8166 21.2071 22.2071C20.8166 22.5976 20.1834 22.5976 19.7929 22.2071L18.032 20.4462C17.4365 20.7981 16.7418 21 16 21C13.7909 21 12 19.2091 12 17ZM16 15C14.8954 15 14 15.8954 14 17C14 18.1046 14.8954 19 16 19C17.1046 19 18 18.1046 18 17C18 15.8954 17.1046 15 16 15Z" fill="black"/>
</svg>

<svg xmlns="http://www.w3.org/2000/svg" width="24" height="24" fill="none" viewBox="0 0 24 24"><path fill="#000" fill-rule="evenodd" d="M6.8501 6.9766C6.8501 4.7804 8.6305 3 10.8267 3s3.9766 1.7804 3.9766 3.9766-1.7804 3.9766-3.9766 3.9766-3.9766-1.7804-3.9766-3.9766M10.8267 5c-1.0916 0-1.9766.885-1.9766 1.9766s.885 1.9766 1.9766 1.9766 1.9766-.885 1.9766-1.9766S11.9183 5 10.8267 5M3 17.0566c0-2.7614 2.2386-5 5-5h4.5986a6.03 6.03 0 0 0-1.8283 2H8c-1.6569 0-3 1.3432-3 3v1.0412c0 .5523.4477 1 1 1h4.3769a6 6 0 0 0 1.2404 2H6c-1.6569 0-3-1.3431-3-3zM16 13c-2.2091 0-4 1.7909-4 4s1.7909 4 4 4a3.98 3.98 0 0 0 2.032-.5538l1.7609 1.7609c.3905.3905 1.0237.3905 1.4142 0s.3905-1.0237 0-1.4142l-1.7609-1.7609A3.98 3.98 0 0 0 20 17c0-2.2091-1.7909-4-4-4m-2 4c0-1.1046.8954-2 2-2s2 .8954 2 2-.8954 2-2 2-2-.8954-2-2"/></svg>
